Flat-Remix-Dark/apps/scalable/converseen.svg

<svg xmlns="http://www.w3.org/2000/svg" width="384pt" height="384pt" version="1.1" viewBox="0 0 384 384"> <g> <path style="fill-rule:evenodd;fill:rgb(21.176%,48.235%,94.117%);fill-opacity:0.996078" d="M 204.820312 23.25 C 246.359375 59.113281 256.746094 95.460938 256.746094 152.582031 L 273.785156 108.441406 C 291.722656 126.078125 303.949219 149.449219 307.539062 175.621094 C 308.859375 195.75 305.570312 213.570312 300.378906 229.148438 C 321.570312 215.65625 348.332031 200.238281 359.789062 175.621094 C 352.140625 94.171875 286.671875 29.476562 204.820312 23.25 Z M 175.621094 24.210938 C 94.171875 31.859375 29.476562 97.324219 23.25 179.179688 C 59.113281 137.636719 95.460938 127.253906 152.578125 127.253906 L 108.441406 110.214844 C 126.078125 92.277344 149.449219 80.050781 175.621094 76.464844 C 195.75 75.144531 213.570312 78.429688 229.148438 83.621094 C 215.65625 62.429688 200.238281 35.667969 175.621094 24.210938 Z M 83.621094 154.851562 C 62.433594 168.34375 35.667969 183.761719 24.210938 208.378906 C 31.859375 289.828125 97.328125 354.523438 179.179688 360.75 C 137.640625 324.886719 127.253906 288.539062 127.253906 231.417969 L 110.214844 275.558594 C 92.277344 257.921875 80.050781 234.550781 76.464844 208.378906 C 75.144531 188.25 78.429688 170.429688 83.621094 154.851562 Z M 360.75 204.820312 C 324.886719 246.359375 288.539062 256.746094 231.421875 256.746094 L 275.558594 273.785156 C 257.921875 291.722656 234.550781 303.949219 208.378906 307.539062 C 188.25 308.859375 170.429688 305.570312 154.851562 300.378906 C 168.34375 321.570312 183.761719 348.332031 208.378906 359.789062 C 289.828125 352.140625 354.523438 286.671875 360.75 204.820312 Z M 360.75 204.820312"/> </g> <path style="fill-opacity:0.99607801;fill-rule:evenodd;opacity:0.3" d="M 273.09375 31 C 328.47922 78.817707 342.32812 127.28191 342.32812 203.44336 L 365.04688 144.58789 C 388.96354 168.10352 405.2662 199.26627 410.05273 234.16211 C 410.20448 236.47562 410.2947 238.75756 410.35742 241.02539 C 410.51077 235.54259 410.43095 229.92819 410.05273 224.16211 C 405.26628 189.26627 388.96354 158.10353 365.04688 134.58789 L 342.32812 193.44336 C 342.32812 123.25779 330.53768 76.595842 285.34766 32.283203 C 281.29473 31.750921 277.21185 31.31327 273.09375 31 z M 244.08203 91.574219 C 240.82323 91.609405 237.51693 91.733073 234.16211 91.953125 C 199.26627 96.734378 168.10352 113.03645 144.58789 136.95312 L 152.06836 139.83984 C 174.54216 119.81641 202.84682 106.24377 234.16211 101.95312 C 261.00064 100.1927 284.76032 104.57227 305.53125 111.49414 C 302.96838 107.46879 300.34553 103.28542 297.65039 99.039062 C 281.49777 94.358261 263.6546 91.362885 244.08203 91.574219 z M 179 160.23828 C 117.07795 163.25667 74.27456 179.4122 32.158203 227.59766 C 31.682843 231.34033 31.2889 235.10832 31 238.90625 C 78.817707 183.51562 127.28129 169.67188 203.4375 169.67188 L 179 160.23828 z M 111.49414 206.46875 C 110.2985 207.23014 109.02877 208.02946 107.80859 208.80078 C 103.61782 224.61573 101.12274 241.99971 101.64844 260.97656 C 102.20729 240.9386 106.05922 222.77762 111.49414 206.46875 z M 478.79492 226.04688 C 463.72912 256.40294 431.24685 276.10096 404.19141 293.20117 C 403.07276 297.42133 401.83819 301.53325 400.50586 305.53125 C 428.76106 287.54165 464.44262 266.98503 479.71875 234.16211 C 479.46328 231.44162 479.14628 228.73845 478.79492 226.04688 z M 481 273.09375 C 480.61437 273.54041 480.22752 273.96107 479.8418 274.40234 C 466.65676 378.20808 382.65776 459.8757 277.83789 469.71875 C 249.69105 456.619 230.57249 428.52106 214.34961 402.96094 C 211.67655 402.18618 209.04934 401.36584 206.46875 400.50586 C 224.45834 428.76106 245.01496 464.44271 277.83789 479.71875 C 386.43682 469.52083 472.69787 382.22915 481 273.09375 z M 33.205078 275.95312 C 32.894083 276.57974 32.577132 277.20214 32.28125 277.83789 C 42.479157 386.43684 129.77082 472.69792 238.90625 481 C 234.56052 477.24806 230.50001 473.48976 226.65234 469.7168 C 125.98768 456.49623 46.350243 376.65208 33.205078 275.95312 z M 333 341.76172 C 325.16674 342.14366 317.04559 342.32812 308.5625 342.32812 L 359.93164 362.16016 C 362.50129 359.87068 364.99923 357.50091 367.41211 355.04688 L 333 341.76172 z" transform="scale(0.75)"/> <path style="fill:rgb(100.000%,100.000%,100.000%);fill-opacity:0.99607801;fill-rule:evenodd;opacity:0.3" d="M 273.09375 31 C 277.43948 34.751942 281.49999 38.510242 285.34766 42.283203 C 386.01231 55.503775 465.64977 135.3479 478.79492 236.04688 C 479.10591 235.42026 479.42287 234.79786 479.71875 234.16211 C 469.52084 125.56316 382.22915 39.302083 273.09375 31 z M 234.16211 32.28125 C 125.56316 42.479166 39.302093 129.76563 31 238.90625 C 31.385629 238.45955 31.772476 238.03897 32.158203 237.59766 C 45.343231 133.78756 129.34223 52.124293 234.16211 42.28125 C 262.30894 55.381003 281.4275 83.478931 297.65039 109.03906 C 300.32345 109.81368 302.95065 110.63416 305.53125 111.49414 C 287.54165 83.238934 266.98503 47.557291 234.16211 32.28125 z M 152.06836 149.83984 C 149.49871 152.12932 147.00077 154.49909 144.58789 156.95312 L 179 170.23828 C 186.83326 169.85645 194.95441 169.67188 203.4375 169.67188 L 152.06836 149.83984 z M 111.49414 206.46875 C 83.244141 224.45835 47.55729 245.01497 32.28125 277.83789 C 32.536716 280.55838 32.853721 283.26155 33.205078 285.95312 C 48.270814 255.59756 80.757496 235.90079 107.80859 218.80078 C 108.92706 214.57999 110.16162 210.46733 111.49414 206.46875 z M 410.35742 251.02539 C 409.797 271.06259 405.94061 289.22289 400.50586 305.53125 C 401.70128 304.77014 402.9715 303.97221 404.19141 303.20117 C 408.38349 287.3863 410.88231 270.00218 410.35742 251.02539 z M 101.64844 270.97656 C 101.49554 276.45876 101.57496 282.07248 101.95312 287.83789 C 106.73438 322.7337 123.03647 353.8965 146.95312 377.41211 L 169.67188 318.55664 C 169.67188 388.7422 181.46231 435.40416 226.65234 479.7168 C 230.70527 480.24908 234.78815 480.68673 238.90625 481 C 183.52081 433.18229 169.67188 384.71809 169.67188 308.55664 L 146.95312 367.41211 C 123.03648 343.8965 106.73436 312.73372 101.95312 277.83789 C 101.80142 275.52505 101.71124 273.24374 101.64844 270.97656 z M 481 273.09375 C 433.18229 328.47916 384.71875 342.32812 308.5625 342.32812 L 333 351.76172 C 394.92206 348.74248 437.72544 332.58334 479.8418 284.40234 C 480.31716 280.65983 480.7111 276.89149 481 273.09375 z M 359.93164 372.16016 C 337.45782 392.18364 309.15314 405.75741 277.83789 410.05273 C 250.99934 411.81315 227.23958 407.42773 206.46875 400.50586 C 209.03162 404.53121 211.65447 408.71458 214.34961 412.96094 C 233.1916 418.42207 254.33379 421.59443 277.83789 420.05273 C 312.73372 415.26628 343.8965 398.96354 367.41211 375.04688 L 359.93164 372.16016 z" transform="scale(0.75)"/> </svg>

<svg width="512" height="512" version="1.1" viewBox="0 0 384 384" xmlns="http://www.w3.org/2000/svg"><path d="m204.82 23.25c41.539 35.863 51.926 72.211 51.926 129.33l17.039-44.141c17.938 17.637 30.164 41.008 33.754 67.18 1.3203 20.129-1.9688 37.949-7.1602 53.527 21.191-13.492 47.953-28.91 59.41-53.527-7.6484-81.449-73.117-146.14-154.97-152.37zm-29.199 0.96094c-81.449 7.6484-146.14 73.113-152.37 154.97 35.863-41.543 72.211-51.926 129.33-51.926l-44.137-17.039c17.637-17.937 41.008-30.164 67.18-33.75 20.129-1.3203 37.949 1.9648 53.527 7.1562-13.492-21.191-28.91-47.953-53.527-59.41zm-92 130.64c-21.188 13.492-47.953 28.91-59.41 53.527 7.6484 81.449 73.117 146.14 154.97 152.37-41.539-35.863-51.926-72.211-51.926-129.33l-17.039 44.141c-17.937-17.637-30.164-41.008-33.75-67.18-1.3203-20.129 1.9648-37.949 7.1562-53.527zm277.13 49.969c-35.863 41.539-72.211 51.926-129.33 51.926l44.137 17.039c-17.637 17.938-41.008 30.164-67.18 33.754-20.129 1.3203-37.949-1.9688-53.527-7.1602 13.492 21.191 28.91 47.953 53.527 59.41 81.449-7.6484 146.14-73.117 152.37-154.97z" fill="#357af0" fill-opacity=".99608" fill-rule="evenodd"/><path transform="scale(.75)" d="m273.09 31c55.385 47.818 69.234 96.282 69.234 172.44l22.719-58.855c23.917 23.516 40.219 54.678 45.006 89.574 0.15175 2.3135 0.24197 4.5954 0.30469 6.8633 0.15335-5.4828 0.0735-11.097-0.30469-16.863-4.7864-34.896-21.089-66.059-45.006-89.574l-22.719 58.855c0-70.186-11.79-116.85-56.98-161.16-4.0529-0.53228-8.1358-0.96993-12.254-1.2832zm-29.012 60.574c-3.2588 0.03519-6.5651 0.15885-9.9199 0.37891-34.896 4.7813-66.059 21.083-89.574 45l7.4805 2.8867c22.474-20.023 50.778-33.596 82.094-37.887 26.839-1.7604 50.598 2.6192 71.369 9.541-2.5629-4.0254-5.1857-8.2087-7.8809-12.455-16.153-4.6808-33.996-7.6762-53.568-7.4648zm-65.082 68.664c-61.922 3.0184-104.73 19.174-146.84 67.359-0.47536 3.7427-0.8693 7.5107-1.1582 11.309 47.818-55.391 96.281-69.234 172.44-69.234zm-67.506 46.23c-1.1956 0.76139-2.4654 1.5607-3.6856 2.332-4.1908 15.815-6.6858 33.199-6.1602 52.176 0.55885-20.038 4.4108-38.199 9.8457-54.508zm367.3 19.578c-15.066 30.356-47.548 50.054-74.604 67.154-1.1186 4.2202-2.3532 8.3321-3.6856 12.33 28.255-17.99 63.937-38.546 79.213-71.369-0.25547-2.7205-0.57247-5.4237-0.92383-8.1152zm2.2051 47.047c-0.38563 0.44666-0.77248 0.86732-1.1582 1.3086-13.185 103.81-97.184 185.47-202 195.32-28.147-13.1-47.265-41.198-63.488-66.758-2.6731-0.77476-5.3003-1.5951-7.8809-2.4551 17.99 28.255 38.546 63.937 71.369 79.213 108.6-10.198 194.86-97.49 203.16-206.62zm-447.79 2.8594c-0.311 0.62662-0.62795 1.249-0.92383 1.8848 10.198 108.6 97.49 194.86 206.62 203.16-4.3457-3.7519-8.4062-7.5102-12.254-11.283-100.66-13.221-180.3-93.065-193.45-193.76zm299.79 65.809c-7.8333 0.38194-15.954 0.5664-24.438 0.5664l51.369 19.832c2.5696-2.2895 5.0676-4.6592 7.4805-7.1133z" fill-opacity=".99608" fill-rule="evenodd" opacity=".3"/><path transform="scale(.75)" d="m273.09 31c4.3457 3.7519 8.4062 7.5102 12.254 11.283 100.66 13.221 180.3 93.065 193.45 193.76 0.31099-0.62662 0.62795-1.249 0.92383-1.8848-10.198-108.6-97.49-194.86-206.62-203.16zm-38.932 1.2812c-108.6 10.198-194.86 97.484-203.16 206.62 0.38563-0.4467 0.77248-0.86728 1.1582-1.3086 13.185-103.81 97.184-185.47 202-195.32 28.147 13.1 47.265 41.198 63.488 66.758 2.6731 0.77462 5.3003 1.5951 7.8809 2.4551-17.99-28.255-38.546-63.937-71.369-79.213zm-82.094 117.56c-2.5696 2.2895-5.0676 4.6592-7.4805 7.1133l34.412 13.285c7.8333-0.38183 15.954-0.5664 24.438-0.5664zm-40.574 56.629c-28.25 17.99-63.937 38.546-79.213 71.369 0.25547 2.7205 0.57247 5.4237 0.92383 8.1152 15.066-30.356 47.552-50.052 74.604-67.152 1.1185-4.2208 2.353-8.3334 3.6856-12.332zm298.86 44.557c-0.56042 20.037-4.4168 38.198-9.8516 54.506 1.1954-0.76111 2.4656-1.559 3.6856-2.3301 4.1921-15.815 6.6909-33.199 6.166-52.176zm-308.71 19.951c-0.1529 5.4822-0.0735 11.096 0.30468 16.861 4.7813 34.896 21.083 66.059 45 89.574l22.719-58.855c0 70.186 11.79 116.85 56.98 161.16 4.0529 0.53228 8.1358 0.96993 12.254 1.2832-55.385-47.818-69.234-96.282-69.234-172.44l-22.719 58.855c-23.917-23.516-40.219-54.678-45-89.574-0.1517-2.3128-0.24188-4.5942-0.30468-6.8613zm379.35 2.1172c-47.818 55.385-96.281 69.234-172.44 69.234l24.438 9.4336c61.922-3.0192 104.73-19.178 146.84-67.359 0.47536-3.7425 0.8693-7.5108 1.1582-11.309zm-121.07 99.066c-22.474 20.023-50.778 33.597-82.094 37.893-26.839 1.7604-50.598-2.625-71.369-9.5469 2.5629 4.0254 5.1857 8.2087 7.8809 12.455 18.842 5.4611 39.984 8.6335 63.488 7.0918 34.896-4.7864 66.059-21.089 89.574-45.006z" fill="#fff" fill-opacity=".99608" fill-rule="evenodd" opacity=".3"/></svg>
